assets/Motorway/Flat/motorway_flat.svg

<svg width="32" height="32" viewBox="0 0 32 32" fill="none" xmlns="http://www.w3.org/2000/svg">
<path d="M2 5.8C2 3.70132 3.70132 2 5.8 2H26.2C28.2987 2 30 3.70132 30 5.8V7.786L25.9664 15.2L3 9.2L2 6.85624V5.8Z" fill="#26C9FC"/>
<path d="M18.5838 12.7239C18.2597 8.85281 15.0154 5.8125 11.0605 5.8125C9.05586 5.8125 7.23388 6.59667 5.88162 7.87361C5.21517 7.1302 4.24743 6.66248 3.17045 6.66248C2.76099 6.66248 2.36732 6.73008 2 6.85474V13.7502L2.01046 13.7537V17.0024H16.9258C17.1815 19.5575 19.338 21.5525 21.9605 21.5525C24.755 21.5525 27.0205 19.2871 27.0205 16.4925C27.0205 16.0721 26.9692 15.6637 26.8726 15.2731C27.6195 14.6952 28.1005 13.79 28.1005 12.7724C28.1005 11.0272 26.6857 9.61243 24.9405 9.61243C23.6737 9.61243 22.5811 10.3578 22.0772 11.4338C22.0384 11.4329 21.9995 11.4325 21.9605 11.4325C20.6629 11.4325 19.4794 11.9209 18.5838 12.7239Z" fill="#E6E6E6"/>
<path d="M30 17.0024H2.01044V26.1055H30V17.0024Z" fill="#00D26A"/>
<path d="M2.40044 7.22238L12.1805 17.0024H2.01044V6.91736C2.14943 7.00085 2.28057 7.10252 2.40044 7.22238ZM30 7.78296V17.0024H20.1158L22.1304 14.6225L26.5104 9.36251C26.9204 8.86251 27.5404 8.58251 28.1804 8.58251H28.3004C28.8804 8.58251 29.4304 8.35251 29.8404 7.94251L30 7.78296Z" fill="#433B6B"/>
<path d="M29.9778 26.6134C29.7718 28.5176 28.159 30 26.2 30H5.80003C3.98536 30 2.46778 28.728 2.09027 27.027L12.1905 17.0024H20.1905L29.9778 26.6134Z" fill="#433B6B"/>
<path d="M2.22173 27.4821C2.07819 27.0816 2 26.6499 2 26.2V26.0167L12.1905 17.0024H13.1905L2.22173 27.4821ZM30 26.0134V26.2C30 26.6658 29.9162 27.1119 29.7629 27.5243L19.1905 17.0024H20.1905L30 26.0134Z" fill="#D3D3D3"/>
<path d="M16.25 17.3763L16.4 18.8744H15.6L15.75 17.3763H16.25ZM16.47 19.6134L16.78 22.7094L15.22 22.7194L15.53 19.6134H16.47ZM17.5 30.0001L16.93 24.2175H15.07L14.5 30.0001H17.5Z" fill="#FCD53F"/>
<path d="M4.39044 15.0024H5.00044C5.11044 15.0024 5.19044 15.0924 5.19044 15.1924V17.8024C5.19044 17.9024 5.11044 17.9924 5.00044 17.9924H4.39044C4.29044 17.9924 4.20044 17.9124 4.20044 17.8024V15.1924C4.20044 15.0924 4.28044 15.0024 4.39044 15.0024ZM9.39044 15.0024H10.0004C10.1104 15.0024 10.1904 15.0924 10.1904 15.1924V17.8024C10.1904 17.9024 10.1104 17.9924 10.0004 17.9924H9.39044C9.29044 17.9924 9.20044 17.9124 9.20044 17.8024V15.1924C9.20044 15.0924 9.28044 15.0024 9.39044 15.0024Z" fill="#D3D3D3"/>
<path d="M10.0704 11.0024H4.30043C3.69043 11.0024 3.19043 11.5024 3.19043 12.1124V14.8924C3.19043 15.5024 3.69043 16.0024 4.30043 16.0024H10.0704C10.6804 16.0024 11.1804 15.5024 11.1804 14.8924V12.1124C11.1904 11.5024 10.6904 11.0024 10.0704 11.0024Z" fill="#008463"/>
<path d="M4.69043 12.0024H7.69043C7.97043 12.0024 8.19043 12.2224 8.19043 12.5024C8.19043 12.7824 7.97043 13.0024 7.69043 13.0024H4.69043C4.41043 13.0024 4.19043 12.7824 4.19043 12.5024C4.19043 12.2224 4.41043 12.0024 4.69043 12.0024Z" fill="#F4F4F4"/>
<path d="M9.19043 12.5024C9.19043 12.2224 9.41043 12.0024 9.69043 12.0024C9.97043 12.0024 10.1904 12.2224 10.1904 12.5024C10.1904 12.7824 9.97043 13.0024 9.69043 13.0024C9.41043 13.0024 9.19043 12.7824 9.19043 12.5024Z" fill="#F4F4F4"/>
<path d="M9.69043 14.0024C9.41043 14.0024 9.19043 14.2224 9.19043 14.5024C9.19043 14.7824 9.41043 15.0024 9.69043 15.0024C9.97043 15.0024 10.1904 14.7824 10.1904 14.5024C10.1904 14.2224 9.97043 14.0024 9.69043 14.0024Z" fill="#F4F4F4"/>
<path d="M4.63043 14.0024H6.76043C7.00043 14.0024 7.19043 14.1924 7.19043 14.4324V14.5624C7.19043 14.8024 7.00043 14.9924 6.76043 14.9924H4.63043C4.39043 14.9924 4.20043 14.8024 4.20043 14.5624V14.4324C4.20043 14.1924 4.39043 14.0024 4.63043 14.0024Z" fill="#F4F4F4"/>
</svg>

<svg xmlns="http://www.w3.org/2000/svg" width="32" height="32" fill="none"><path fill="#26C9FC" d="M2 5.8A3.8 3.8 0 0 1 5.8 2h20.4A3.8 3.8 0 0 1 30 5.8v1.986L25.966 15.2 3 9.2 2 6.856V5.8Z"/><path fill="#E6E6E6" d="M18.584 12.724a7.55 7.55 0 0 0-7.524-6.912 7.52 7.52 0 0 0-5.178 2.062A3.63 3.63 0 0 0 3.17 6.662c-.409 0-.803.068-1.17.193v6.895l.01.004v3.248h14.916a5.06 5.06 0 1 0 9.947-1.729 3.16 3.16 0 1 0-4.795-3.84h-.118a5.041 5.041 0 0 0-3.376 1.29Z"/><path fill="#00D26A" d="M30 17.002H2.01v9.104H30v-9.104Z"/><path fill="#433B6B" d="m2.4 7.222 9.78 9.78H2.01V6.917c.14.084.27.186.39.305Zm27.6.561v9.22h-9.884l2.014-2.38 4.38-5.26c.41-.5 1.03-.78 1.67-.78h.12c.58 0 1.13-.23 1.54-.64l.16-.16Z"/><path fill="#433B6B" d="M29.978 26.613A3.8 3.8 0 0 1 26.2 30H5.8a3.801 3.801 0 0 1-3.71-2.973l10.1-10.025h8l9.788 9.611Z"/><path fill="#D3D3D3" d="M2.222 27.482A3.793 3.793 0 0 1 2 26.2v-.183l10.19-9.015h1L2.223 27.482ZM30 26.013v.187c0 .466-.084.912-.237 1.324L19.19 17.002h1L30 26.013Z"/><path fill="#FCD53F" d="m16.25 17.376.15 1.498h-.8l.15-1.498h.5Zm.22 2.237.31 3.096-1.56.01.31-3.106h.94ZM17.5 30l-.57-5.782h-1.86L14.5 30h3Z"/><path fill="#D3D3D3" d="M4.39 15.002H5c.11 0 .19.09.19.19v2.61c0 .1-.08.19-.19.19h-.61a.19.19 0 0 1-.19-.19v-2.61c0-.1.08-.19.19-.19Zm5 0H10c.11 0 .19.09.19.19v2.61c0 .1-.08.19-.19.19h-.61a.19.19 0 0 1-.19-.19v-2.61c0-.1.08-.19.19-.19Z"/><path fill="#008463" d="M10.07 11.002H4.3c-.61 0-1.11.5-1.11 1.11v2.78c0 .61.5 1.11 1.11 1.11h5.77c.61 0 1.11-.5 1.11-1.11v-2.78c.01-.61-.49-1.11-1.11-1.11Z"/><path fill="#F4F4F4" d="M4.69 12.002h3c.28 0 .5.22.5.5s-.22.5-.5.5h-3c-.28 0-.5-.22-.5-.5s.22-.5.5-.5ZM9.19 12.502c0-.28.22-.5.5-.5s.5.22.5.5-.22.5-.5.5-.5-.22-.5-.5ZM9.69 14.002c-.28 0-.5.22-.5.5s.22.5.5.5.5-.22.5-.5-.22-.5-.5-.5ZM4.63 14.002h2.13c.24 0 .43.19.43.43v.13c0 .24-.19.43-.43.43H4.63c-.24 0-.43-.19-.43-.43v-.13c0-.24.19-.43.43-.43Z"/></svg>
